src/browser/graphics/images/tag_tweet.svg

<?xml version="1.0" encoding="UTF-8"?><svg id="_像" xmlns="http://www.w3.org/2000/svg" width="30" height="88" viewBox="0 0 30 88"><defs><style>.cls-1{fill:#fff;}</style></defs><path class="cls-1" d="M17.42,31.08c0,.55,.18,.99,.53,1.31s.87,.51,1.54,.56v-3.71c-1.38,.01-2.07,.62-2.07,1.84Z"/><path class="cls-1" d="M17.42,41.44c0,.55,.18,.99,.53,1.31s.87,.51,1.54,.56v-3.71c-1.38,.01-2.07,.62-2.07,1.84Z"/><path class="cls-1" d="M13,7c-3.87,0-7,3.13-7,7v60c0,3.87,3.13,7,7,7H30V7H13Zm11.41,60.54c-.52,.53-1.36,.8-2.52,.8h-3.85v1.93h-2.03v-1.93h-3.42v-2.93h3.42v-3.06h2.03v3.06h3.37c.65,0,1.08-.08,1.3-.23,.22-.16,.32-.44,.32-.85,0-.52-.1-1.06-.29-1.62l2.09-.32c.24,.85,.36,1.73,.36,2.63,0,1.15-.26,2-.77,2.53Zm-8.77-11.99v-3.37l7.02-1.24v-.04l-7.02-1.15v-2.84l9.36,2.29v3.46l-6.84,1.24v.04l6.84,1.24v3.44l-9.36,2.29v-2.92l7.02-1.15v-.04l-7.02-1.24Zm8.23-10.75c-.88,.91-2.06,1.36-3.55,1.36s-2.68-.42-3.55-1.26c-.87-.84-1.31-1.97-1.31-3.38s.42-2.58,1.25-3.38c.83-.8,2.02-1.21,3.57-1.21,.37,0,.7,.02,.99,.07v6.3c.59-.08,1.05-.33,1.38-.75,.33-.41,.5-.95,.5-1.61,0-.89-.22-1.76-.65-2.61l1.96-.63c.48,1.07,.72,2.24,.72,3.51,0,1.49-.44,2.68-1.31,3.59Zm0-10.36c-.88,.91-2.06,1.36-3.55,1.36s-2.68-.42-3.55-1.26c-.87-.84-1.31-1.97-1.31-3.38s.42-2.58,1.25-3.38c.83-.8,2.02-1.21,3.57-1.21,.37,0,.7,.02,.99,.07v6.3c.59-.08,1.05-.33,1.38-.75,.33-.41,.5-.95,.5-1.61,0-.89-.22-1.76-.65-2.61l1.96-.63c.48,1.07,.72,2.24,.72,3.51,0,1.49-.44,2.68-1.31,3.59Zm.54-11.69c-.52,.53-1.36,.8-2.52,.8h-3.85v1.93h-2.03v-1.93h-3.42v-2.93h3.42v-3.06h2.03v3.06h3.37c.65,0,1.08-.08,1.3-.23,.22-.16,.32-.44,.32-.85,0-.52-.1-1.06-.29-1.62l2.09-.32c.24,.85,.36,1.73,.36,2.63,0,1.15-.26,2-.77,2.53Z"/></svg>

<svg id="画像" xmlns="http://www.w3.org/2000/svg" width="30" height="88" viewBox="0 0 30 88"><defs><style>.cls-1{fill:#fff;}</style></defs><path class="cls-1" d="M17.42,41.44A1.69,1.69,0,0,0,18,42.75a2.48,2.48,0,0,0,1.54.56V39.6C18.11,39.62,17.42,40.23,17.42,41.44Z"/><path class="cls-1" d="M17.42,31.08A1.69,1.69,0,0,0,18,32.39a2.48,2.48,0,0,0,1.54.56V29.24C18.11,29.25,17.42,29.87,17.42,31.08Z"/><path class="cls-1" d="M13,7a7,7,0,0,0-7,7V74a7,7,0,0,0,7,7H30V7ZM24.41,67.54a3.42,3.42,0,0,1-2.52.8H18v1.92H16V68.34H12.58V65.4H16V62.34h2V65.4H21.4a2.52,2.52,0,0,0,1.3-.23,1,1,0,0,0,.32-.85,5.14,5.14,0,0,0-.29-1.62l2.09-.32A9.65,9.65,0,0,1,25.18,65,3.58,3.58,0,0,1,24.41,67.54Zm-8.77-12V52.18l7-1.24v0l-7-1.15V46.91L25,49.19v3.46l-6.84,1.24v0L25,55.17v3.44l-9.36,2.28V58l7-1.15v0ZM23.87,44.8a4.74,4.74,0,0,1-3.55,1.36,4.89,4.89,0,0,1-3.55-1.26,4.5,4.5,0,0,1-1.31-3.39,4.48,4.48,0,0,1,1.25-3.38,5,5,0,0,1,3.57-1.21,5.66,5.66,0,0,1,1,.08v6.29a2.05,2.05,0,0,0,1.38-.74,2.52,2.52,0,0,0,.5-1.61,5.73,5.73,0,0,0-.65-2.61l2-.63a8.41,8.41,0,0,1,.72,3.51A5,5,0,0,1,23.87,44.8Zm0-10.36a4.73,4.73,0,0,1-3.55,1.35,4.85,4.85,0,0,1-3.55-1.26,4.47,4.47,0,0,1-1.31-3.38,4.48,4.48,0,0,1,1.25-3.38,4.93,4.93,0,0,1,3.57-1.21,5.75,5.75,0,0,1,1,.07v6.3a2.05,2.05,0,0,0,1.38-.74,2.55,2.55,0,0,0,.5-1.62A5.79,5.79,0,0,0,22.5,28l2-.63a8.48,8.48,0,0,1,.72,3.51A5,5,0,0,1,23.87,34.44Zm.54-11.7a3.37,3.37,0,0,1-2.52.8H18v1.93H16V23.54H12.58V20.61H16V17.55h2v3.06H21.4a2.52,2.52,0,0,0,1.3-.23,1,1,0,0,0,.32-.85,5,5,0,0,0-.29-1.62l2.09-.32a9.58,9.58,0,0,1,.36,2.62A3.54,3.54,0,0,1,24.41,22.74Z"/></svg>
